X: 2213
T: Autumn In Paris
R: waltz
M: 3/4
K: Gmajor
Bc|d2 g3 a|f4 gf|e2 G2 A2|B4Bc^c|d2 g3 a|f3 d e2|
c6-|c2 d e2|e2 a3 b|^g4 a2|g3 e fg|f4 AB|c3 d2 e|f3 e de|
B6-|B4 Bc|d2 g3 a|f4 fg|e2 G2 A2|B4 Bc|d3 ^c d2|b3 a g2|
e6-|e3 e eg|c'2 b3 a|e3 d eg|b2 a2 g2|d3 B dg|e3 c eg|
f3 d fa|g4 Bc^c|d3 c B2|B4 AG|FE-E4-|E4 E2|D2 G2 B2|d3 d e2|
c6-|c3 d e2|e4 de|B6|G4 GA|F6|D2 F2 A2|d3 d ed|
B6-|B3 c d2|d3 c B2|B4 AB|^G2 =F4-|F6|E2 ^G2 B2|e B3 d2|c6-|c2 d e3|
e3 G ce|e g3 e2|d2 G2 A2|B4 d2|e3 c (3efg|f3 d fa|g3 f ga|g4||

